packages/sources/icons/src/vitamix/train-fill.svg

<svg width="16" height="16" viewBox="0 0 16 16" xmlns="http://www.w3.org/2000/svg"><path d="M11.4667 13.3333L12.6667 14.3333V14.6667H3.33333V14.3333L4.53333 13.3333H3.33333C2.97971 13.3333 2.64057 13.1929 2.39052 12.9428C2.14048 12.6928 2 12.3536 2 12V4.66667C2 3.95942 2.28095 3.28115 2.78105 2.78105C3.28115 2.28095 3.95942 2 4.66667 2H11.3333C12.0406 2 12.7189 2.28095 13.219 2.78105C13.719 3.28115 14 3.95942 14 4.66667V12C14 12.3536 13.8595 12.6928 13.6095 12.9428C13.3594 13.1929 13.0203 13.3333 12.6667 13.3333H11.4667ZM3.33333 4.66667V7.33333H12.6667V4.66667H3.33333ZM8 12C8.35362 12 8.69276 11.8595 8.94281 11.6095C9.19286 11.3594 9.33333 11.0203 9.33333 10.6667C9.33333 10.313 9.19286 9.97391 8.94281 9.72386C8.69276 9.47381 8.35362 9.33333 8 9.33333C7.64638 9.33333 7.30724 9.47381 7.05719 9.72386C6.80714 9.97391 6.66667 10.313 6.66667 10.6667C6.66667 11.0203 6.80714 11.3594 7.05719 11.6095C7.30724 11.8595 7.64638 12 8 12Z"/></svg>

<svg width="16" height="16" xmlns="http://www.w3.org/2000/svg"><path d="m11.467 13.333 1.2 1v.334H3.333v-.334l1.2-1h-1.2A1.333 1.333 0 0 1 2 12V4.667A2.667 2.667 0 0 1 4.667 2h6.666A2.667 2.667 0 0 1 14 4.667V12a1.333 1.333 0 0 1-1.333 1.333h-1.2ZM3.333 4.667v2.666h9.334V4.667H3.333ZM8 12a1.334 1.334 0 1 0 0-2.667A1.334 1.334 0 0 0 8 12Z"/></svg>
